X:1
T:Där borta
T:Elfrida Andrée (1841-1923)
T:Text: Viktor Rydberg
T:Måttligt
T:ur Drömliv II
T:©PA Aglert Edition may be freely distributed, duplicated, performed and recorded
T:©PA Aglert Edition may be freely distributed, duplicated, performed and recorded
T:©PA Aglert Edition may be freely distributed, duplicated, performed and recorded
T:©PA Aglert Edition may be freely distributed, duplicated, performed and recorded
C:Ludvig Norman (1831-1885)
Z:©PA Aglert
Z:Edition may be freely distributed, duplicated, performed and recorded
%%score [ 1 2 ( 3 4 ) 5 ]
L:1/8
Q:1/4=120
M:3/4
K:Eb
V:1 treble nm="S"
V:2 treble nm="A"
V:3 treble-8 nm="T"
V:4 treble-8 
V:5 bass nm="B"
V:1
 z6 | z6 | z6 | z6 | z6 | z6 | z6 | z6 | B4 =B2 | c2 d2 c2 | B6 | B4 e2 | (=e4 f2) | g4 f2 | %14
w: ||||||||Hur de|silv- ra- de|dim-|mor- na|skri- *|da för-|
!>(! e6-!>)! | e2 z2!pp! GG | G2 z2 GG | G4 GG |!>(! c2 c2!>)! c2 | G4 GG | G2 G2 F2 | %21
w: bi!|* O, så|lyss och för-|nim då den|vis- kan- de|kor u- tav|ti- der- nas|
 =E2 c2 z _E | A2 B2 z A | G2 z2 GG | G4 GG | G2 G3 G | !>!c2 !>!c2 !>!c2 | G4 GG | %28
w: an- dar, som|svä- var dä-|ri! Och du|kän- ner en|var- sel i|bä- van- de|bröst av det|
"^cresc." G2 G2 G2 | =E2 c2 _E2 | A2 B3 A |"^rit." A6 |"^a tempo" G4 G2 | A2 B2 A2 | (G4 c2) | %35
w: djup- sta, som|sek- ler- nas|hjär- ta för-|nam,|vad av|ve och av|ma- *|
 B4 G2 | B6 | B4 B2 | B6- | B4 BB | B6 | B4 =B2 | c6 | c4 _c2 | B6 |!<(! B4 B2!<)! | B6- | %47
w: nan- de|all-|var och|tröst,|* som har|spru-|ngit ur|si-|a- re-|har-|por- na|fram.|
!>(! B2 z2 z2!>)! |] %48
w: |
V:2
!p! B,4 =B,2 | C2 D2 C2 |!<(! (!courtesy!_B,4!<)! A2) | G4 E2 |!<(! (=E4!<)! F2) |!>(! G4!>)! F2 | %6
w: Se hur|än- gar- na|klä- *|das i|sval- *|lan- de|
 (B,6 | B,6) | E4 E2 | E2 E2 E2 |!<(! (B,4!<)! A2) | G4 G2 | A6 | A4 A2 |!>(! G6- | %15
w: flor,||Hur de|silv- ra- de|dim- *|mor- na|skri-|da för-|bi!|
 G2!>)! z2!pp! GG | G2 z2 EC | D4 GG |!>(! A2 A2!>)! A2 | G4 GG | C2 C2 C2 | C2 =E2 z C | %22
w: * O, så|lyss och för-|nim då den|vis- kan- de|kor u- tav|ti- der- nas|an- dar, som|
 E2 E2 z E | D2 z2 GG | G4 EC | D2 D3 G | !>!A2 !>!A2 !>!A2 | G4 GG |"^cresc." C2 C2 C2 | %29
w: svä- var dä-|ri! Och du|kän- ner en|var- sel i|bä- van- de|bröst av det|djup- sta, som|
 C2 =E2 C2 | E2 E3 E | (E4 D2) | B,4 B,2 | _C2 _D2 C2 | (B,4 A2) | G4 E2 | (=E4 F2) | G4 G2 | %38
w: sek- ler- nas|hjär- ta för-|nam, *|vad av|ve och av|ma- *|nan- de|all- *|var och|
!>(! (E4 D2 | C2!>)! B,2) AA | G6 | G4 G2 | (A4 =E2) | F4 F2 | B6 |!<(! D4 D2!<)! | E6- | %47
w: tröst, *|* * som har|spru-|ngit ur|si- *|a- re-|har-|por- na|fram.|
!>(! E2 z2 z2!>)! |] %48
w: |
V:3
!p! G4 G2 | A2 B2 A2 |!<(! (G4!<)! c2) | B4 G2 |!<(! (G4!<)! A2) |!>(! B4!>)! A2 | (G6 | %7
w: Se hur|än- gar- na|klä- *|das i|sval- *|lan- de|flor,|
!<(! F2 G2!<)! A2) | B4 G2 | A2 B2 A2 |!<(! (G2 B2!<)! d2) | e4 e2 | d6 | c4 d2 |!>(! B6-!>)! | %15
w: |Hur de|silv- ra- de|dim- * *|mor- na|skri-|da för-|bi!|
 B2 z2!pp! GG | G2 z2 c=A | =B4 GG |!>(! d2 d2!>)! d2 | G4 GG | A2 A2 A2 | G2 G2 z G | c2 c2 z c | %23
w: * O, så|lyss och för-|nim då den|vis- kan- de|kor u- tav|ti- der- nas|an- dar, som|svä- var dä-|
 =B2 z2 GG | G4 c=A | =B2 B3 G | !>!d2 !>!d2 !>!d2 | G4 GG |"^cresc." A2 A2 A2 | G2 G2 G2 | %30
w: ri! Och du|kän- ner en|var- sel i|bä- van- de|bröst av det|djup- sta, som|sek- ler- nas|
 c2 c3 c | (c2 _c2 B2) | B4 B2 | _c2 _d2 c2 | (B4 !courtesy!=c!courtesy!=d) | e4 B2 | (G4 A2) | %37
w: hjär- ta för-|nam, * *|vad av|ve och av|ma- * *|nan- de|all- *|
 B4 B2 |!>(! (B4 A2 | G2!>)! F2) dd | (B4 e2) | _d4 d2 | (c4 g2) | [cf]4 [Ae]2 | %44
w: var och|tröst, *|* * som har|spru- *|ngit ur|si- *|a- re-|
 (d2!<(! =e2 f2)!<)! | [Bg]4 [Af]2 | [Ge]6- |!>(! [Ge]2 z2 z2!>)! |] %48
w: har- * *|por- na|fram.||
V:4
 x6 | x6 | x6 | x6 | x6 | x6 | x6 | x6 | x6 | x6 | x6 | x6 | x6 | x6 | x6 | x6 | x6 | x6 | x6 | %19
 x6 | x6 | x6 | x6 | x6 | x6 | x6 | x6 | x6 | x6 | x6 | x6 | x6 | x6 | x6 | x6 | x6 | x6 | x6 | %38
 x6 | x6 | x6 | x6 | x6 | x6 | B6 | x6 | x6 | x6 |] %48
V:5
!p! E,4 E,2 | E,2 E,2 E,2 |!<(! E,6!<)! | E,4 E,2 |!<(! B,,6!<)! |!>(! B,,4!>)! B,,2 | (E,6 | %7
w: Se hur|än- gar- na|klä-|das i|sval-|lan- de|flor,|
!<(! B,,2 E,2!<)! F,2) | G,4 G,2 | A,2 B,2 A,2 | (G,4 F,2) | E,4 E,2 | B,6 | B,4 B,2 | %14
w: |Hur de|silv- ra- de|dim- *|mor- na|skri-|da för-|
!>(! E,6-!>)! | E,2 z2!pp! G,G, | G,2 z2 G,G, | G,4 G,G, |!>(! F,2 F,2!>)! F,2 | G,4 G,G, | %20
w: bi!|* O, så|lyss och för-|nim då den|vis- kan- de|kor u- tav|
 G,,2 G,,2 G,,2 | G,,2 G,,2 z G, | F,2 F,2 z F, | G,2 z2 G,G, | G,4 G,G, | G,2 G,3 G, | %26
w: ti- der- nas|an- dar, som|svä- var dä-|ri! Och du|kän- ner en|var- sel i|
 !>!F,2 !>!F,2 !>!F,2 | G,4 G,G, |"^cresc." G,,2 G,,2 G,,2 | G,,2 G,,2 G,2 | F,2 F,3 F, | F,6 | %32
w: bä- van- de|bröst av det|djup- sta, som|sek- ler- nas|hjär- ta för-|nam,|
 E,4 E,2 | E,4 E,2 | E,6 | E,4 E,2 | B,,6 | B,,4 A,2 |!>(! (G,4 F,2 | E,2!>)! D,2) F,F, | E,6 | %41
w: vad av|ve och|ma-|nan- de|all-|var och|tröst, *|* * som har|spru-|
 E,4 E,2 | (A,4 B,2) | A,4 A,2 | B,6 |!<(! [B,,A,]4 [B,,B,]2!<)! | [E,G,]6- | %47
w: ngit ur|si- *|a- re-|har-|por- na|fram.|
!>(! [E,G,]2 z2 z2!>)! |] %48
w: |

